images/step2.svg

<svg width="32" height="32" viewBox="0 0 32 32" fill="none" xmlns="http://www.w3.org/2000/svg">
<g clip-path="url(#clip0_3_20418)">
<path d="M25.4375 22.625C23.1626 22.625 20.7139 23.5331 19.5564 25.1823L13.1088 23.9127C13.1193 23.7978 13.125 23.6811 13.125 23.5625C13.125 22.4912 12.6806 21.585 11.9669 20.8631L15.9791 18.0292C17.1135 18.583 18.4594 18.875 19.75 18.875C22.8675 18.875 26.3125 17.17 26.3125 14.1875C26.3125 11.5031 23.5206 9.8525 20.6875 9.55062V13.25C20.6875 13.7678 20.2678 14.1875 19.75 14.1875C19.2322 14.1875 18.8125 13.7678 18.8125 13.25V9.55062C15.9806 9.8525 13.1875 11.5019 13.1875 14.1875C13.1875 15.2587 13.6319 16.165 14.3456 16.8869L10.3334 19.7208C9.199 19.167 7.85313 18.875 6.5625 18.875C3.445 18.875 0 20.58 0 23.5625C0 26.5438 3.44313 28.25 6.5625 28.25C8.83744 28.25 11.2861 27.3419 12.4436 25.6927L18.8913 26.9623C18.8807 27.0773 18.8751 27.1938 18.8751 27.3125C18.8751 30.2938 22.3182 32 25.4376 32C28.5551 32 32.0001 30.295 32.0001 27.3125C32 24.3312 28.5569 22.625 25.4375 22.625ZM20.6875 9.55062V7.5H27.1875C27.7398 7.5 28.1875 7.05228 28.1875 6.5V1C28.1875 0.447715 27.7398 0 27.1875 0H18.8125V9.55062C19.4357 9.48316 20.0643 9.48316 20.6875 9.55062Z" fill="#2161AB"/>
</g>
<defs>
<clipPath id="clip0_3_20418">
<rect width="32" height="32" fill="white"/>
</clipPath>
</defs>
</svg>

<svg width="32" height="32" fill="none" xmlns="http://www.w3.org/2000/svg"><g clip-path="url(#clip0_3_20418)"><path d="M25.438 22.625c-2.275 0-4.724.908-5.882 2.557l-6.447-1.27c.01-.114.016-.23.016-.35 0-1.07-.444-1.977-1.158-2.699l4.012-2.834c1.134.554 2.48.846 3.771.846 3.117 0 6.563-1.705 6.563-4.688 0-2.684-2.792-4.335-5.625-4.636v3.699a.937.937 0 11-1.875 0v-3.7c-2.832.302-5.625 1.952-5.625 4.637 0 1.072.444 1.978 1.158 2.7l-4.013 2.834c-1.134-.554-2.48-.846-3.77-.846C3.445 18.875 0 20.58 0 23.563c0 2.98 3.443 4.687 6.563 4.687 2.274 0 4.723-.908 5.88-2.557l6.448 1.27a3.81 3.81 0 00-.016.35c0 2.98 3.443 4.687 6.563 4.687C28.555 32 32 30.295 32 27.312c0-2.98-3.443-4.687-6.563-4.687zm-4.75-13.074V7.5h6.5a1 1 0 001-1V1a1 1 0 00-1-1h-8.375v9.55a8.711 8.711 0 011.875 0z" fill="#2161AB"/></g><defs><clipPath id="clip0_3_20418"><path fill="#fff" d="M0 0h32v32H0z"/></clipPath></defs></svg>
